packages/core/src/svgs/tokens/branded/APM.svg

<svg width="24" height="24" viewBox="0 0 24 24" fill="none" xmlns="http://www.w3.org/2000/svg">
<path d="M14.046 13.2582C13.474 13.9694 12.2691 14.49 11.3753 14.49C10.5159 14.49 9.50034 14.0462 9.50034 13.0075C9.50034 12.0181 10.3223 11.6638 11.1528 11.4945C12.1309 11.2913 13.5896 11.1707 14.5004 10.73C14.5004 11.5563 14.5721 12.5456 14.046 13.2582ZM12.0004 5.20001C13.5716 5.20001 14.5004 5.68875 14.5004 6.80626C14.5004 8.03501 12.6484 8.0675 11.7691 8.13C9.84902 8.37563 8.36406 8.55063 7.38655 8.79563C6.37218 9.00626 5.57593 9.28625 5.03217 9.70683C3.88092 10.4494 3.25718 11.87 3.25718 13.21C3.1853 14.4362 3.61968 15.4875 4.52593 16.3281C5.4303 17.2044 6.80656 17.625 8.7253 17.625C9.88475 17.625 10.8629 17.45 11.7678 17.1344C12.6677 16.7748 13.5004 16.2655 14.2303 15.6281L14.5004 17.625H20.7504C20.2065 17.2394 20.1253 16.0137 20.1253 15.3475V7.81563C20.1253 3.29751 16.5647 2 12.3116 2C8.70406 2 4.20905 2.80125 3.87531 7H9.50034C9.59411 5.82813 10.429 5.20001 12.0004 5.20001ZM20.1253 20.125H3.87531V22H20.1253V20.125Z" fill="url(#paint0_linear_364_8803)"/>
<defs>
<linearGradient id="paint0_linear_364_8803" x1="6.50528" y1="5.46857" x2="27.3206" y2="26.3887" gradientUnits="userSpaceOnUse">
<stop stop-color="#1A1E21"/>
<stop offset="1" stop-color="#06060A"/>
</linearGradient>
</defs>
</svg>

<svg xmlns="http://www.w3.org/2000/svg" width="24" height="24" fill="none" viewBox="0 0 24 24">
    <path fill="url(#APM__a)" d="M14.046 13.258c-.572.711-1.777 1.232-2.67 1.232-.86 0-1.876-.444-1.876-1.482 0-.99.822-1.344 1.653-1.513.978-.204 2.437-.324 3.347-.765 0 .826.072 1.816-.454 2.528M12 5.2c1.572 0 2.5.489 2.5 1.606 0 1.229-1.852 1.262-2.73 1.324-1.921.246-3.406.42-4.383.666-1.015.21-1.811.49-2.355.91-1.151.743-1.775 2.164-1.775 3.504-.072 1.226.363 2.278 1.269 3.118.904.876 2.28 1.297 4.2 1.297 1.159 0 2.137-.175 3.042-.49a8.6 8.6 0 0 0 2.462-1.507l.27 1.997h6.25c-.544-.386-.625-1.611-.625-2.277V7.816c0-4.518-3.56-5.816-7.813-5.816-3.608 0-8.103.801-8.437 5H9.5c.094-1.172.929-1.8 2.5-1.8m8.125 14.925H3.875V22h16.25z"/>
    <defs>
        <linearGradient id="APM__a" x1="6.505" x2="27.321" y1="5.469" y2="26.389" gradientUnits="userSpaceOnUse">
            <stop stop-color="#1A1E21"/>
            <stop offset="1" stop-color="#06060A"/>
        </linearGradient>
    </defs>
</svg>
